X:1
T: Naked and Bare
N:
C:trad. Shetland
S:
A:
O:
R:
M:6/8
K:Em
I:speed 150
%W: A1
% voice 1 (1 lines, 38 notes)
K:Em
M:6/8
L:1/16
F2 |G4 A2 B4 e2 e2 d2 e2 B2 A2 G2 A4 A2 B4 e2 B3 A G2 E4 F2 |G4 A2 B4 e2 e2 d2 e2 B2 A2 G2 E6 g4 e2 d2 B2 G2 E4 F2 |
%W: A2
% voice 1 (1 lines, 37 notes)
G4 A2 B4 e2 e2 d2 e2 B2 A2 G2 A4 A2 B4 e2 B3 A G2 E4 F2 |G4 A2 B4 e2 e2 d2 e2 B2 A2 G2 E6 g4 e2 d2 B2 G2 E4 z2 |
%W: B1
% voice 1 (1 lines, 38 notes)
g4 g2 g4 b2 a2 b2 a2 a2 f2 d2 g4 g2 g4 b2 a2 g2 f2 e4 f2 |g4 g2 g4 b2 a2 b2 a2 a2 f2 d2 e4 d2 g4 e2 d2 B2 G2 E4 z2 |
%W: B2
% voice 1 (1 lines, 37 notes)
g4 g2 g4 b2 a2 b2 a2 a2 f2 d2 g4 g2 g4 b2 a2 g2 f2 e4 f2 |g4 g2 g4 b2 a2 b2 a2 a2 f2 d2 e4 d2 g4 e2 d2 B2 G2 E4 ||
